FINK
CUT[ES BLIES EIN JAEGER]
REG[Europa, Mitteleuropa, Deutschland]
KEY[F0661  16  A 2/4]
MEL[-5_  -5_1_113_  21-7-6-5__
    4__3153  2__0_
    13  5555531_  4_4_4__
    3_3_5__  21-7-6-5_
    -5_  1133531_  322_1_ //] >>
FCT[Staende -, Jaeger - Lied, Liebe, Tod]
